X:377
T:Irish Air RH.377
R:air
S:Rev.R.Harrison’s MS,c1815,Cumbria
O:England
A:Temple Sowerby,Cumbria
Z:vmp.Simon Wilson. Review PJH, 2008.
M:C
L:1/16
Q:2/4=50
K:G
” Addagio”G/>A/|B3cB2A2 B2E2E3F|G3AG2E2 A6G/>A/|\
B3cB2A2 B2E2 E2EE|G3B B3A E3FE6:|!
|:E/>F/|G3AB3c d3ed2B2|e3^de2f2 g4f3e|\
d3GG3A B2E2 E3F|G3A B2A2 F3GE6:|

